icons/solid/login.svg

<svg width="24" height="24" viewBox="0 0 24 24" fill="none" xmlns="http://www.w3.org/2000/svg">
<path fill-rule="evenodd" clip-rule="evenodd" d="M12.7071 7.29289C12.3166 6.90237 11.6834 6.90237 11.2929 7.29289L7.29289 11.2929C6.90237 11.6834 6.90237 12.3166 7.29289 12.7071L11.2929 16.7071C11.6834 17.0976 12.3166 17.0976 12.7071 16.7071C13.0976 16.3166 13.0976 15.6834 12.7071 15.2929L10.4142 13H20C20.5523 13 21 12.5523 21 12C21 11.4477 20.5523 11 20 11H10.4142L12.7071 8.70711C13.0976 8.31658 13.0976 7.68342 12.7071 7.29289ZM6 3C4.34315 3 3 4.34315 3 6V18C3 19.6569 4.34315 21 6 21H14C15.6569 21 17 19.6569 17 18V6C17 4.34315 15.6569 3 14 3H6Z" fill="currentColor"/>
</svg>

<svg width="24" height="24" fill="none" xmlns="http://www.w3.org/2000/svg"><path fill-rule="evenodd" clip-rule="evenodd" d="M12.707 7.293a1 1 0 00-1.414 0l-4 4a1 1 0 000 1.414l4 4a1 1 0 001.414-1.414L10.414 13H20a1 1 0 100-2h-9.586l2.293-2.293a1 1 0 000-1.414zM6 3a3 3 0 00-3 3v12a3 3 0 003 3h8a3 3 0 003-3V6a3 3 0 00-3-3H6z" fill="currentColor"/></svg>
